brandFactory_export/3.Masa/PC_3Masa.svg

<?xml version="1.0" encoding="UTF-8"?>
<svg width="24px" height="24px" viewBox="0 0 24 24" version="1.1" xmlns="http://www.w3.org/2000/svg" xmlns:xlink="http://www.w3.org/1999/xlink">
    <title>3.Masa/PC_3Masa</title>
    <g id="Symbols" stroke="none" stroke-width="1" fill="none" fill-rule="evenodd">
        <g id="3.Masa/PC_3Masa" fill="#5CB615" fill-rule="nonzero">
            <path d="M14.0504202,5.01008403 C15.0218487,5.01008403 15.7815126,5.2789916 16.302521,5.81008403 C16.810084,6.32436975 17.0655462,7.05714286 17.0655462,7.98823529 L17.0655462,13.1243697 C17.0655462,15.0336134 15.9663866,16.1260504 14.0504202,16.1260504 L11.4062521,16.127084 L12.0742521,16.817084 L16.4201681,16.8151261 C16.7831933,16.8151261 17.0789916,17.1109244 17.0789916,17.4739496 C17.0789916,17.8369748 16.7831933,18.1327731 16.4201681,18.1327731 L0.689075631,18.1394958 C0.32605042,18.1394958 0.0302521011,17.8436975 0.0302521011,17.4806723 C0.0302521011,17.1176471 0.32605042,16.8218487 0.689075631,16.8218487 L4.9262521,16.819084 L5.5842521,16.130084 L3.05882353,16.1327731 C1.14285714,16.1327731 0.0436974793,15.0403361 0.0436974793,13.1310924 L0.0436974793,7.99495798 C0.0436974793,7.06386555 0.299159664,6.33109244 0.806722689,5.81680672 C1.32773109,5.28571429 2.08739496,5.01680672 3.05882353,5.01680672 L14.0504202,5.01008403 Z M21.8689076,5.01680672 C22.389916,5.01680672 23.6067227,5.25210084 23.6067227,7.43361345 L23.610091,15.6890756 C23.6134454,17.8773109 22.3966387,18.112605 21.8756303,18.112605 L19.4789916,18.112605 C18.9109244,18.112605 18.4336134,17.8537815 18.1344538,17.3798319 C17.8789916,16.9731092 17.7546218,16.4218487 17.7546218,15.692437 L17.7478992,7.43697479 C17.7478992,6.70756303 17.8722689,6.15630252 18.1277311,5.74957983 C18.4268908,5.2789916 18.9042017,5.01680672 19.4722689,5.01680672 L21.8689076,5.01680672 Z M9.5722521,16.128084 L7.4062521,16.129084 L6.7472521,16.819084 L10.2412521,16.817084 L9.5722521,16.128084 Z" id="PC_3Masa"></path>
        </g>
    </g>
</svg>

<svg width="24" height="24" viewBox="0 0 24 24" xmlns="http://www.w3.org/2000/svg"><path d="M14.05 5.01c.972 0 1.732.269 2.253.8.507.514.763 1.247.763 2.178v5.136c0 1.91-1.1 3.002-3.016 3.002l-2.644.001.668.69 4.346-.002a.66.66 0 010 1.318l-15.73.006a.66.66 0 010-1.317l4.236-.003.658-.689-2.525.003c-1.916 0-3.015-1.093-3.015-3.002V7.995c0-.931.255-1.664.763-2.178.52-.531 1.28-.8 2.252-.8L14.05 5.01zm7.819.007c.52 0 1.738.235 1.738 2.417l.003 8.255c.003 2.188-1.213 2.424-1.734 2.424h-2.397a1.537 1.537 0 01-1.345-.733c-.255-.407-.38-.958-.38-1.688l-.006-8.255c0-.73.124-1.28.38-1.687.299-.471.776-.733 1.344-.733h2.397zM9.572 16.128l-2.166.001-.659.69 3.494-.002-.669-.689z" fill="#5CB615" fill-rule="nonzero"/></svg>
